images/50866484.svg

<?xml version="1.0" encoding="UTF-8"?>
<svg xmlns="http://www.w3.org/2000/svg" xmlns:xlink="http://www.w3.org/1999/xlink" width="300pt" height="300pt" viewBox="0 0 300 300" version="1.1">
<defs>
<g>
<symbol overflow="visible" id="glyph0-0">
<path style="stroke:none;" d="M 0.453125 1.59375 L 0.453125 -6.34375 L 4.953125 -6.34375 L 4.953125 1.59375 Z M 0.953125 1.09375 L 4.453125 1.09375 L 4.453125 -5.84375 L 0.953125 -5.84375 Z M 0.953125 1.09375 "/>
</symbol>
<symbol overflow="visible" id="glyph0-1">
<path style="stroke:none;" d="M 3.546875 -5.953125 C 2.898438 -5.953125 2.382812 -5.710938 2 -5.234375 C 1.625 -4.753906 1.4375 -4.101562 1.4375 -3.28125 C 1.4375 -2.445312 1.625 -1.789062 2 -1.3125 C 2.382812 -0.832031 2.898438 -0.59375 3.546875 -0.59375 C 4.191406 -0.59375 4.703125 -0.832031 5.078125 -1.3125 C 5.453125 -1.789062 5.640625 -2.445312 5.640625 -3.28125 C 5.640625 -4.101562 5.453125 -4.753906 5.078125 -5.234375 C 4.703125 -5.710938 4.191406 -5.953125 3.546875 -5.953125 Z M 3.546875 -6.6875 C 4.460938 -6.6875 5.195312 -6.375 5.75 -5.75 C 6.300781 -5.132812 6.578125 -4.3125 6.578125 -3.28125 C 6.578125 -2.238281 6.300781 -1.410156 5.75 -0.796875 C 5.195312 -0.179688 4.460938 0.125 3.546875 0.125 C 2.617188 0.125 1.878906 -0.179688 1.328125 -0.796875 C 0.773438 -1.410156 0.5 -2.238281 0.5 -3.28125 C 0.5 -4.3125 0.773438 -5.132812 1.328125 -5.75 C 1.878906 -6.375 2.617188 -6.6875 3.546875 -6.6875 Z M 3.546875 -6.6875 "/>
</symbol>
<symbol overflow="visible" id="glyph0-2">
<path style="stroke:none;" d="M 0.890625 -6.5625 L 2.078125 -6.5625 L 4.984375 -1.078125 L 4.984375 -6.5625 L 5.84375 -6.5625 L 5.84375 0 L 4.65625 0 L 1.75 -5.484375 L 1.75 0 L 0.890625 0 Z M 0.890625 -6.5625 "/>
</symbol>
<symbol overflow="visible" id="glyph0-3">
<path style="stroke:none;" d="M 0.890625 -6.5625 L 1.765625 -6.5625 L 1.765625 -3.875 L 5 -3.875 L 5 -6.5625 L 5.890625 -6.5625 L 5.890625 0 L 5 0 L 5 -3.125 L 1.765625 -3.125 L 1.765625 0 L 0.890625 0 Z M 0.890625 -6.5625 "/>
</symbol>
</g>
</defs>
<g id="surface22205">
<rect x="0" y="0" width="300" height="300" style="fill:rgb(100%,100%,100%);fill-opacity:1;stroke:none;"/>
<path style="fill:none;stroke-width:1.2;stroke-linecap:butt;stroke-linejoin:miter;stroke:rgb(100%,0%,0%);stroke-opacity:1;stroke-miterlimit:10;" d="M 36.519531 157.570312 L 45.894531 152.164062 "/>
<path style="fill:none;stroke-width:1.2;stroke-linecap:butt;stroke-linejoin:miter;stroke:rgb(0%,0%,0%);stroke-opacity:1;stroke-miterlimit:10;" d="M 45.894531 152.164062 L 55.269531 146.761719 "/>
<path style="fill:none;stroke-width:1.2;stroke-linecap:butt;stroke-linejoin:miter;stroke:rgb(100%,0%,0%);stroke-opacity:1;stroke-miterlimit:10;" d="M 33.980469 153.15625 L 43.351562 147.753906 "/>
<path style="fill:none;stroke-width:1.2;stroke-linecap:butt;stroke-linejoin:miter;stroke:rgb(0%,0%,0%);stroke-opacity:1;stroke-miterlimit:10;" d="M 43.351562 147.753906 L 52.726562 142.351562 "/>
<path style=" stroke:none;fill-rule:nonzero;fill:rgb(100%,100%,100%);fill-opacity:1;" d="M 27.25 149.863281 L 35.25 149.863281 L 35.25 160.863281 L 27.25 160.863281 Z M 27.25 149.863281 "/>
<g style="fill:rgb(100%,0%,0%);fill-opacity:1;">
  <use xlink:href="#glyph0-1" x="27.25" y="158.526367"/>
</g>
<path style="fill:none;stroke-width:1.2;stroke-linecap:butt;stroke-linejoin:miter;stroke:rgb(0%,0%,0%);stroke-opacity:1;stroke-miterlimit:10;" d="M 53.996094 144.558594 L 54.003906 133.738281 "/>
<path style="fill:none;stroke-width:1.2;stroke-linecap:butt;stroke-linejoin:miter;stroke:rgb(0%,0%,100%);stroke-opacity:1;stroke-miterlimit:10;" d="M 54.003906 133.738281 L 54.011719 122.917969 "/>
<path style="fill:none;stroke-width:1.2;stroke-linecap:butt;stroke-linejoin:miter;stroke:rgb(0%,0%,0%);stroke-opacity:1;stroke-miterlimit:10;" d="M 53.996094 144.558594 L 72.730469 155.390625 "/>
<path style="fill:none;stroke-width:1.2;stroke-linecap:butt;stroke-linejoin:miter;stroke:rgb(0%,0%,100%);stroke-opacity:1;stroke-miterlimit:10;" d="M 54.011719 122.917969 L 44.648438 117.5 "/>
<path style="fill:none;stroke-width:1.2;stroke-linecap:butt;stroke-linejoin:miter;stroke:rgb(0%,0%,0%);stroke-opacity:1;stroke-miterlimit:10;" d="M 44.648438 117.5 L 35.28125 112.085938 "/>
<path style=" stroke:none;fill-rule:nonzero;fill:rgb(100%,100%,100%);fill-opacity:1;" d="M 47.011719 117.417969 L 61.011719 117.417969 L 61.011719 128.417969 L 47.011719 128.417969 Z M 47.011719 117.417969 "/>
<g style="fill:rgb(0%,0%,100%);fill-opacity:1;">
  <use xlink:href="#glyph0-2" x="47.011719" y="126.081055"/>
  <use xlink:href="#glyph0-3" x="53.989258" y="126.081055"/>
</g>
<path style="fill:none;stroke-width:1.2;stroke-linecap:butt;stroke-linejoin:miter;stroke:rgb(0%,0%,0%);stroke-opacity:1;stroke-miterlimit:10;" d="M 72.730469 155.390625 L 91.476562 144.582031 "/>
<path style="fill:none;stroke-width:1.2;stroke-linecap:butt;stroke-linejoin:miter;stroke:rgb(0%,0%,0%);stroke-opacity:1;stroke-miterlimit:10;" d="M 77.148438 158.71875 L 92.144531 150.074219 "/>
<path style="fill:none;stroke-width:1.2;stroke-linecap:butt;stroke-linejoin:miter;stroke:rgb(0%,0%,0%);stroke-opacity:1;stroke-miterlimit:10;" d="M 72.714844 177.027344 L 72.730469 155.390625 "/>
<path style="fill:none;stroke-width:1.2;stroke-linecap:butt;stroke-linejoin:miter;stroke:rgb(0%,0%,0%);stroke-opacity:1;stroke-miterlimit:10;" d="M 91.476562 144.582031 L 110.210938 155.417969 "/>
<path style="fill:none;stroke-width:1.2;stroke-linecap:butt;stroke-linejoin:miter;stroke:rgb(0%,0%,0%);stroke-opacity:1;stroke-miterlimit:10;" d="M 110.210938 155.417969 L 119.582031 150.011719 "/>
<path style="fill:none;stroke-width:1.2;stroke-linecap:butt;stroke-linejoin:miter;stroke:rgb(0%,0%,100%);stroke-opacity:1;stroke-miterlimit:10;" d="M 119.582031 150.011719 L 128.957031 144.609375 "/>
<path style="fill:none;stroke-width:1.2;stroke-linecap:butt;stroke-linejoin:miter;stroke:rgb(0%,0%,0%);stroke-opacity:1;stroke-miterlimit:10;" d="M 110.210938 155.417969 L 110.195312 177.054688 "/>
<path style="fill:none;stroke-width:1.2;stroke-linecap:butt;stroke-linejoin:miter;stroke:rgb(0%,0%,0%);stroke-opacity:1;stroke-miterlimit:10;" d="M 105.117188 157.578125 L 105.105469 174.886719 "/>
<path style="fill:none;stroke-width:1.2;stroke-linecap:butt;stroke-linejoin:miter;stroke:rgb(0%,0%,100%);stroke-opacity:1;stroke-miterlimit:10;" d="M 128.957031 144.609375 L 138.324219 150.027344 "/>
<path style="fill:none;stroke-width:1.2;stroke-linecap:butt;stroke-linejoin:miter;stroke:rgb(0%,0%,0%);stroke-opacity:1;stroke-miterlimit:10;" d="M 138.324219 150.027344 L 147.691406 155.441406 "/>
<path style=" stroke:none;fill-rule:nonzero;fill:rgb(100%,100%,100%);fill-opacity:1;" d="M 121.957031 139.109375 L 135.957031 139.109375 L 135.957031 150.109375 L 121.957031 150.109375 Z M 121.957031 139.109375 "/>
<g style="fill:rgb(0%,0%,100%);fill-opacity:1;">
  <use xlink:href="#glyph0-2" x="121.957031" y="147.772461"/>
  <use xlink:href="#glyph0-3" x="128.93457" y="147.772461"/>
</g>
<path style="fill:none;stroke-width:1.2;stroke-linecap:butt;stroke-linejoin:miter;stroke:rgb(0%,0%,0%);stroke-opacity:1;stroke-miterlimit:10;" d="M 147.691406 155.441406 L 147.683594 166.261719 "/>
<path style="fill:none;stroke-width:1.2;stroke-linecap:butt;stroke-linejoin:miter;stroke:rgb(0%,0%,100%);stroke-opacity:1;stroke-miterlimit:10;" d="M 147.683594 166.261719 L 147.675781 177.082031 "/>
<path style="fill:none;stroke-width:1.2;stroke-linecap:butt;stroke-linejoin:miter;stroke:rgb(0%,0%,0%);stroke-opacity:1;stroke-miterlimit:10;" d="M 152.78125 157.609375 L 152.773438 166.265625 "/>
<path style="fill:none;stroke-width:1.2;stroke-linecap:butt;stroke-linejoin:miter;stroke:rgb(0%,0%,100%);stroke-opacity:1;stroke-miterlimit:10;" d="M 152.773438 166.265625 L 152.769531 174.921875 "/>
<path style="fill:none;stroke-width:1.2;stroke-linecap:butt;stroke-linejoin:miter;stroke:rgb(0%,0%,0%);stroke-opacity:1;stroke-miterlimit:10;" d="M 166.4375 144.636719 L 147.691406 155.441406 "/>
<path style="fill:none;stroke-width:1.2;stroke-linecap:butt;stroke-linejoin:miter;stroke:rgb(0%,0%,100%);stroke-opacity:1;stroke-miterlimit:10;" d="M 147.675781 177.082031 L 157.039062 182.5 "/>
<path style="fill:none;stroke-width:1.2;stroke-linecap:butt;stroke-linejoin:miter;stroke:rgb(0%,0%,0%);stroke-opacity:1;stroke-miterlimit:10;" d="M 157.039062 182.5 L 166.40625 187.914062 "/>
<path style=" stroke:none;fill-rule:nonzero;fill:rgb(100%,100%,100%);fill-opacity:1;" d="M 144.675781 171.582031 L 151.675781 171.582031 L 151.675781 182.582031 L 144.675781 182.582031 Z M 144.675781 171.582031 "/>
<g style="fill:rgb(0%,0%,100%);fill-opacity:1;">
  <use xlink:href="#glyph0-2" x="144.675781" y="180.245117"/>
</g>
<path style="fill:none;stroke-width:1.2;stroke-linecap:butt;stroke-linejoin:miter;stroke:rgb(0%,0%,0%);stroke-opacity:1;stroke-miterlimit:10;" d="M 166.40625 187.914062 L 175.78125 182.511719 "/>
<path style="fill:none;stroke-width:1.2;stroke-linecap:butt;stroke-linejoin:miter;stroke:rgb(0%,0%,100%);stroke-opacity:1;stroke-miterlimit:10;" d="M 175.78125 182.511719 L 185.15625 177.109375 "/>
<path style="fill:none;stroke-width:1.2;stroke-linecap:butt;stroke-linejoin:miter;stroke:rgb(0%,0%,0%);stroke-opacity:1;stroke-miterlimit:10;" d="M 165.738281 182.421875 L 173.238281 178.101562 "/>
<path style="fill:none;stroke-width:1.2;stroke-linecap:butt;stroke-linejoin:miter;stroke:rgb(0%,0%,100%);stroke-opacity:1;stroke-miterlimit:10;" d="M 173.238281 178.101562 L 180.738281 173.777344 "/>
<path style="fill:none;stroke-width:1.2;stroke-linecap:butt;stroke-linejoin:miter;stroke:rgb(0%,0%,100%);stroke-opacity:1;stroke-miterlimit:10;" d="M 185.15625 177.109375 L 185.164062 166.289062 "/>
<path style="fill:none;stroke-width:1.2;stroke-linecap:butt;stroke-linejoin:miter;stroke:rgb(0%,0%,0%);stroke-opacity:1;stroke-miterlimit:10;" d="M 185.164062 166.289062 L 185.167969 155.46875 "/>
<path style=" stroke:none;fill-rule:nonzero;fill:rgb(100%,100%,100%);fill-opacity:1;" d="M 182.15625 171.609375 L 189.15625 171.609375 L 189.15625 182.609375 L 182.15625 182.609375 Z M 182.15625 171.609375 "/>
<g style="fill:rgb(0%,0%,100%);fill-opacity:1;">
  <use xlink:href="#glyph0-2" x="182.15625" y="180.272461"/>
</g>
<path style="fill:none;stroke-width:1.2;stroke-linecap:butt;stroke-linejoin:miter;stroke:rgb(0%,0%,0%);stroke-opacity:1;stroke-miterlimit:10;" d="M 185.167969 155.46875 L 193.214844 148.234375 "/>
<path style="fill:none;stroke-width:1.2;stroke-linecap:butt;stroke-linejoin:miter;stroke:rgb(0%,0%,100%);stroke-opacity:1;stroke-miterlimit:10;" d="M 193.214844 148.234375 L 201.261719 141 "/>
<path style="fill:none;stroke-width:1.2;stroke-linecap:butt;stroke-linejoin:miter;stroke:rgb(0%,0%,0%);stroke-opacity:1;stroke-miterlimit:10;" d="M 166.4375 144.636719 L 185.167969 155.46875 "/>
<path style="fill:none;stroke-width:1.2;stroke-linecap:butt;stroke-linejoin:miter;stroke:rgb(0%,0%,0%);stroke-opacity:1;stroke-miterlimit:10;" d="M 165.761719 150.128906 L 180.746094 158.792969 "/>
<path style="fill:none;stroke-width:1.2;stroke-linecap:butt;stroke-linejoin:miter;stroke:rgb(0%,0%,100%);stroke-opacity:1;stroke-miterlimit:10;" d="M 201.261719 141 L 192.472656 121.226562 "/>
<path style="fill:none;stroke-width:1.2;stroke-linecap:butt;stroke-linejoin:miter;stroke:rgb(0%,0%,100%);stroke-opacity:1;stroke-miterlimit:10;" d="M 201.261719 141 L 211.84375 143.257812 "/>
<path style="fill:none;stroke-width:1.2;stroke-linecap:butt;stroke-linejoin:miter;stroke:rgb(0%,0%,0%);stroke-opacity:1;stroke-miterlimit:10;" d="M 211.84375 143.257812 L 222.425781 145.515625 "/>
<path style=" stroke:none;fill-rule:nonzero;fill:rgb(100%,100%,100%);fill-opacity:1;" d="M 198.261719 135.5 L 205.261719 135.5 L 205.261719 146.5 L 198.261719 146.5 Z M 198.261719 135.5 "/>
<g style="fill:rgb(0%,0%,100%);fill-opacity:1;">
  <use xlink:href="#glyph0-2" x="198.261719" y="144.163086"/>
</g>
<path style="fill:none;stroke-width:1.2;stroke-linecap:butt;stroke-linejoin:miter;stroke:rgb(0%,0%,100%);stroke-opacity:1;stroke-miterlimit:10;" d="M 192.472656 121.226562 L 181.710938 122.351562 "/>
<path style="fill:none;stroke-width:1.2;stroke-linecap:butt;stroke-linejoin:miter;stroke:rgb(0%,0%,0%);stroke-opacity:1;stroke-miterlimit:10;" d="M 181.710938 122.351562 L 170.953125 123.472656 "/>
<path style="fill:none;stroke-width:1.2;stroke-linecap:butt;stroke-linejoin:miter;stroke:rgb(0%,0%,100%);stroke-opacity:1;stroke-miterlimit:10;" d="M 190.851562 126.515625 L 182.242188 127.414062 "/>
<path style="fill:none;stroke-width:1.2;stroke-linecap:butt;stroke-linejoin:miter;stroke:rgb(0%,0%,0%);stroke-opacity:1;stroke-miterlimit:10;" d="M 182.242188 127.414062 L 173.632812 128.3125 "/>
<path style=" stroke:none;fill-rule:nonzero;fill:rgb(100%,100%,100%);fill-opacity:1;" d="M 189.472656 115.726562 L 196.472656 115.726562 L 196.472656 126.726562 L 189.472656 126.726562 Z M 189.472656 115.726562 "/>
<g style="fill:rgb(0%,0%,100%);fill-opacity:1;">
  <use xlink:href="#glyph0-2" x="189.472656" y="124.389648"/>
</g>
<path style="fill:none;stroke-width:1.2;stroke-linecap:butt;stroke-linejoin:miter;stroke:rgb(0%,0%,0%);stroke-opacity:1;stroke-miterlimit:10;" d="M 170.953125 123.472656 L 166.4375 144.636719 "/>
<path style="fill:none;stroke-width:1.2;stroke-linecap:butt;stroke-linejoin:miter;stroke:rgb(0%,0%,0%);stroke-opacity:1;stroke-miterlimit:10;" d="M 222.425781 145.515625 L 225.761719 155.808594 "/>
<path style="fill:none;stroke-width:1.2;stroke-linecap:butt;stroke-linejoin:miter;stroke:rgb(0%,0%,100%);stroke-opacity:1;stroke-miterlimit:10;" d="M 225.761719 155.808594 L 229.097656 166.101562 "/>
<path style="fill:none;stroke-width:1.2;stroke-linecap:butt;stroke-linejoin:miter;stroke:rgb(0%,0%,0%);stroke-opacity:1;stroke-miterlimit:10;" d="M 227.933594 146.003906 L 230.605469 154.238281 "/>
<path style="fill:none;stroke-width:1.2;stroke-linecap:butt;stroke-linejoin:miter;stroke:rgb(0%,0%,100%);stroke-opacity:1;stroke-miterlimit:10;" d="M 230.605469 154.238281 L 233.273438 162.472656 "/>
<path style="fill:none;stroke-width:1.2;stroke-linecap:butt;stroke-linejoin:miter;stroke:rgb(0%,0%,0%);stroke-opacity:1;stroke-miterlimit:10;" d="M 236.914062 129.445312 L 222.425781 145.515625 "/>
<path style="fill:none;stroke-width:1.2;stroke-linecap:butt;stroke-linejoin:miter;stroke:rgb(0%,0%,100%);stroke-opacity:1;stroke-miterlimit:10;" d="M 229.097656 166.101562 L 239.679688 168.355469 "/>
<path style="fill:none;stroke-width:1.2;stroke-linecap:butt;stroke-linejoin:miter;stroke:rgb(0%,0%,0%);stroke-opacity:1;stroke-miterlimit:10;" d="M 239.679688 168.355469 L 250.257812 170.613281 "/>
<path style=" stroke:none;fill-rule:nonzero;fill:rgb(100%,100%,100%);fill-opacity:1;" d="M 226.097656 160.601562 L 233.097656 160.601562 L 233.097656 171.601562 L 226.097656 171.601562 Z M 226.097656 160.601562 "/>
<g style="fill:rgb(0%,0%,100%);fill-opacity:1;">
  <use xlink:href="#glyph0-2" x="226.097656" y="169.264648"/>
</g>
<path style="fill:none;stroke-width:1.2;stroke-linecap:butt;stroke-linejoin:miter;stroke:rgb(0%,0%,0%);stroke-opacity:1;stroke-miterlimit:10;" d="M 250.257812 170.613281 L 264.75 154.542969 "/>
<path style="fill:none;stroke-width:1.2;stroke-linecap:butt;stroke-linejoin:miter;stroke:rgb(0%,0%,0%);stroke-opacity:1;stroke-miterlimit:10;" d="M 247.925781 165.597656 L 259.519531 152.742188 "/>
<path style="fill:none;stroke-width:1.2;stroke-linecap:butt;stroke-linejoin:miter;stroke:rgb(0%,0%,0%);stroke-opacity:1;stroke-miterlimit:10;" d="M 264.75 154.542969 L 258.078125 133.957031 "/>
<path style="fill:none;stroke-width:1.2;stroke-linecap:butt;stroke-linejoin:miter;stroke:rgb(0%,0%,0%);stroke-opacity:1;stroke-miterlimit:10;" d="M 258.078125 133.957031 L 236.914062 129.445312 "/>
<path style="fill:none;stroke-width:1.2;stroke-linecap:butt;stroke-linejoin:miter;stroke:rgb(0%,0%,0%);stroke-opacity:1;stroke-miterlimit:10;" d="M 254.898438 138.488281 L 237.96875 134.875 "/>
<path style="fill:none;stroke-width:1.2;stroke-linecap:butt;stroke-linejoin:miter;stroke:rgb(0%,0%,0%);stroke-opacity:1;stroke-miterlimit:10;" d="M 110.195312 177.054688 L 91.445312 187.863281 "/>
<path style="fill:none;stroke-width:1.2;stroke-linecap:butt;stroke-linejoin:miter;stroke:rgb(0%,0%,0%);stroke-opacity:1;stroke-miterlimit:10;" d="M 110.195312 177.054688 L 128.925781 187.886719 "/>
<path style="fill:none;stroke-width:1.2;stroke-linecap:butt;stroke-linejoin:miter;stroke:rgb(0%,0%,0%);stroke-opacity:1;stroke-miterlimit:10;" d="M 91.445312 187.863281 L 72.714844 177.027344 "/>
<path style="fill:none;stroke-width:1.2;stroke-linecap:butt;stroke-linejoin:miter;stroke:rgb(0%,0%,0%);stroke-opacity:1;stroke-miterlimit:10;" d="M 92.121094 182.371094 L 77.136719 173.703125 "/>
</g>
</svg>

<svg xmlns="http://www.w3.org/2000/svg" xmlns:xlink="http://www.w3.org/1999/xlink" width="300pt" height="300pt" viewBox="0 0 300 300"><defs><symbol overflow="visible"><path d="M.453 1.594v-7.938h4.5v7.938zm.5-.5h3.5v-6.938h-3.5zm0 0"/></symbol><symbol overflow="visible" id="a"><path d="M3.547-5.953c-.65 0-1.164.242-1.547.72-.375.48-.563 1.13-.563 1.952 0 .835.188 1.49.563 1.967.383.48.898.72 1.547.72.644 0 1.156-.24 1.53-.72.376-.476.564-1.132.564-1.968 0-.822-.187-1.474-.562-1.954-.375-.477-.887-.72-1.53-.72zm0-.734c.914 0 1.648.312 2.203.937.55.617.828 1.438.828 2.47 0 1.042-.277 1.87-.828 2.483-.555.617-1.29.922-2.203.922-.93 0-1.668-.305-2.22-.922C.774-1.41.5-2.237.5-3.28c0-1.033.273-1.853.828-2.47.55-.625 1.29-.938 2.22-.938zm0 0"/></symbol><symbol overflow="visible" id="b"><path d="M.89-6.563H2.08l2.906 5.485v-5.484h.86V0H4.656L1.75-5.484V0H.89zm0 0"/></symbol><symbol overflow="visible" id="c"><path d="M.89-6.563h.876v2.688H5v-2.688h.89V0H5v-3.125H1.766V0H.89zm0 0"/></symbol></defs><g><path fill="#fff" d="M0 0h300v300H0z"/><path d="M36.52 157.57l9.375-5.406" stroke-width="1.2" stroke="#f00" stroke-miterlimit="10" fill="none"/><path d="M45.895 152.164l9.375-5.402" stroke-width="1.2" stroke="#000" stroke-miterlimit="10" fill="none"/><path d="M33.98 153.156l9.372-5.402" stroke-width="1.2" stroke="#f00" stroke-miterlimit="10" fill="none"/><path d="M43.352 147.754l9.375-5.402" stroke-width="1.2" stroke="#000" stroke-miterlimit="10" fill="none"/><path d="M27.25 149.863h8v11h-8zm0 0" fill="#fff"/><use xlink:href="#a" x="27.25" y="158.526" fill="#f00"/><path d="M53.996 144.56l.008-10.822" stroke-width="1.2" stroke="#000" stroke-miterlimit="10" fill="none"/><path d="M54.004 133.738l.008-10.82" stroke-width="1.2" stroke="#00f" stroke-miterlimit="10" fill="none"/><path d="M53.996 144.56l18.734 10.83" stroke-width="1.2" stroke="#000" stroke-miterlimit="10" fill="none"/><path d="M54.012 122.918l-9.364-5.418" stroke-width="1.2" stroke="#00f" stroke-miterlimit="10" fill="none"/><path d="M44.648 117.5l-9.367-5.414" stroke-width="1.2" stroke="#000" stroke-miterlimit="10" fill="none"/><path d="M47.012 117.418h14v11h-14zm0 0" fill="#fff"/><g fill="#00f"><use xlink:href="#b" x="47.012" y="126.081"/><use xlink:href="#c" x="53.989" y="126.081"/></g><path d="M72.73 155.39l18.747-10.808M77.148 158.72l14.997-8.646M72.715 177.027l.015-21.636M91.477 144.582l18.734 10.836M110.21 155.418l9.372-5.406" stroke-width="1.2" stroke="#000" stroke-miterlimit="10" fill="none"/><path d="M119.582 150.012l9.375-5.403" stroke-width="1.2" stroke="#00f" stroke-miterlimit="10" fill="none"/><path d="M110.21 155.418l-.015 21.637M105.117 157.578l-.012 17.31" stroke-width="1.2" stroke="#000" stroke-miterlimit="10" fill="none"/><path d="M128.957 144.61l9.367 5.417" stroke-width="1.2" stroke="#00f" stroke-miterlimit="10" fill="none"/><path d="M138.324 150.027l9.367 5.414" stroke-width="1.2" stroke="#000" stroke-miterlimit="10" fill="none"/><path d="M121.957 139.11h14v11h-14zm0 0" fill="#fff"/><g fill="#00f"><use xlink:href="#b" x="121.957" y="147.772"/><use xlink:href="#c" x="128.935" y="147.772"/></g><path d="M147.69 155.44l-.006 10.822" stroke-width="1.2" stroke="#000" stroke-miterlimit="10" fill="none"/><path d="M147.684 166.262l-.008 10.82" stroke-width="1.2" stroke="#00f" stroke-miterlimit="10" fill="none"/><path d="M152.78 157.61l-.007 8.656" stroke-width="1.2" stroke="#000" stroke-miterlimit="10" fill="none"/><path d="M152.773 166.266l-.003 8.656" stroke-width="1.2" stroke="#00f" stroke-miterlimit="10" fill="none"/><path d="M166.438 144.637L147.69 155.44" stroke-width="1.2" stroke="#000" stroke-miterlimit="10" fill="none"/><path d="M147.676 177.082l9.363 5.418" stroke-width="1.2" stroke="#00f" stroke-miterlimit="10" fill="none"/><path d="M157.04 182.5l9.366 5.414" stroke-width="1.2" stroke="#000" stroke-miterlimit="10" fill="none"/><path d="M144.676 171.582h7v11h-7zm0 0" fill="#fff"/><use xlink:href="#b" x="144.676" y="180.245" fill="#00f"/><path d="M166.406 187.914l9.375-5.402" stroke-width="1.2" stroke="#000" stroke-miterlimit="10" fill="none"/><path d="M175.78 182.512l9.376-5.403" stroke-width="1.2" stroke="#00f" stroke-miterlimit="10" fill="none"/><path d="M165.738 182.422l7.5-4.32" stroke-width="1.2" stroke="#000" stroke-miterlimit="10" fill="none"/><path d="M173.238 178.102l7.5-4.325M185.156 177.11l.008-10.82" stroke-width="1.2" stroke="#00f" stroke-miterlimit="10" fill="none"/><path d="M185.164 166.29l.004-10.82" stroke-width="1.2" stroke="#000" stroke-miterlimit="10" fill="none"/><path d="M182.156 171.61h7v11h-7zm0 0" fill="#fff"/><use xlink:href="#b" x="182.156" y="180.272" fill="#00f"/><path d="M185.168 155.47l8.047-7.236" stroke-width="1.2" stroke="#000" stroke-miterlimit="10" fill="none"/><path d="M193.215 148.234l8.047-7.234" stroke-width="1.2" stroke="#00f" stroke-miterlimit="10" fill="none"/><path d="M166.438 144.637l18.73 10.832M165.762 150.13l14.984 8.663" stroke-width="1.2" stroke="#000" stroke-miterlimit="10" fill="none"/><path d="M201.262 141l-8.79-19.773M201.262 141l10.582 2.258" stroke-width="1.2" stroke="#00f" stroke-miterlimit="10" fill="none"/><path d="M211.844 143.258l10.582 2.258" stroke-width="1.2" stroke="#000" stroke-miterlimit="10" fill="none"/><path d="M198.262 135.5h7v11h-7zm0 0" fill="#fff"/><use xlink:href="#b" x="198.262" y="144.163" fill="#00f"/><path d="M192.473 121.227l-10.762 1.125" stroke-width="1.2" stroke="#00f" stroke-miterlimit="10" fill="none"/><path d="M181.71 122.352l-10.757 1.12" stroke-width="1.2" stroke="#000" stroke-miterlimit="10" fill="none"/><path d="M190.852 126.516l-8.61.898" stroke-width="1.2" stroke="#00f" stroke-miterlimit="10" fill="none"/><path d="M182.242 127.414l-8.61.898" stroke-width="1.2" stroke="#000" stroke-miterlimit="10" fill="none"/><path d="M189.473 115.727h7v11h-7zm0 0" fill="#fff"/><use xlink:href="#b" x="189.473" y="124.39" fill="#00f"/><path d="M170.953 123.473l-4.516 21.164M222.426 145.516l3.336 10.293" stroke-width="1.2" stroke="#000" stroke-miterlimit="10" fill="none"/><path d="M225.762 155.81l3.336 10.292" stroke-width="1.2" stroke="#00f" stroke-miterlimit="10" fill="none"/><path d="M227.934 146.004l2.67 8.234" stroke-width="1.2" stroke="#000" stroke-miterlimit="10" fill="none"/><path d="M230.605 154.238l2.668 8.235" stroke-width="1.2" stroke="#00f" stroke-miterlimit="10" fill="none"/><path d="M236.914 129.445l-14.488 16.07" stroke-width="1.2" stroke="#000" stroke-miterlimit="10" fill="none"/><path d="M229.098 166.102l10.582 2.253" stroke-width="1.2" stroke="#00f" stroke-miterlimit="10" fill="none"/><path d="M239.68 168.355l10.578 2.258" stroke-width="1.2" stroke="#000" stroke-miterlimit="10" fill="none"/><path d="M226.098 160.602h7v11h-7zm0 0" fill="#fff"/><use xlink:href="#b" x="226.098" y="169.265" fill="#00f"/><path d="M250.258 170.613l14.492-16.07M247.926 165.598l11.594-12.856M264.75 154.543l-6.672-20.586M258.078 133.957l-21.164-4.512M254.898 138.488l-16.93-3.613M110.195 177.055l-18.75 10.808M110.195 177.055l18.73 10.832M91.445 187.863l-18.73-10.836M92.12 182.37l-14.983-8.667" stroke-width="1.2" stroke="#000" stroke-miterlimit="10" fill="none"/></g></svg>
